X:1
T:The Hoboes Grand Convention
M:4/4
L:1/8
K:G
 dd| d3/2 e/2 dB AG GG| G3/2 A/2 BG-E-D B,C| DG Bd BG GA|G-GA-B A2d-d|\
 d3/2 e/2 dB AG GG| G3/2 A/2 BG ED B, C/2C/2| DG Bd BG GA| BA GA G||\
